src/assets/journey/seed.svg

<svg fill="none" height="87" viewBox="0 0 98 87" width="98" xmlns="http://www.w3.org/2000/svg" xmlns:xlink="http://www.w3.org/1999/xlink"><linearGradient id="a" gradientUnits="userSpaceOnUse" x1="47.775" x2="47.775" y1="2" y2="102"><stop offset="0" stop-color="#ffd8ab"/><stop offset="1" stop-color="#fff" stop-opacity="0"/></linearGradient><linearGradient id="b" gradientUnits="userSpaceOnUse" x1="47.775" x2="47.775" y1="2" y2="102"><stop offset="0" stop-color="#ffca8d"/><stop offset="1" stop-color="#fff" stop-opacity="0"/></linearGradient><linearGradient id="c" gradientUnits="userSpaceOnUse" x1="49" x2="49" y1="29.5" y2="88.5"><stop offset="0" stop-color="#fffbf5"/><stop offset="1" stop-color="#ffc786"/></linearGradient><mask id="d" height="87" maskUnits="userSpaceOnUse" width="98" x="0" y="0"><path d="m.5 20c0-10.76955 8.73045-19.5 19.5-19.5h58c10.7695 0 19.5 8.73045 19.5 19.5v59c0 4.1421-3.3579 7.5-7.5 7.5h-82c-4.14213 0-7.5-3.3579-7.5-7.5z" fill="#fbf5ef" stroke="#000"/></mask><mask id="e" height="109" maskUnits="userSpaceOnUse" width="104" x="-3" y="0"><ellipse cx="49" cy="54.5" fill="#612c1b" rx="52" ry="54.5"/></mask><g mask="url(#d)"><path d="m97 52c0 27.0811-21.5093 49-48 49s-48-21.9189-48-49 21.5093-49 48-49 48 21.9189 48 49z" fill="url(#a)" stroke="url(#b)" stroke-width="2"/><g mask="url(#e)"><path d="m70.6008 84.271c-1.6269-2.8371-3.4809-4.1018-6.0118-4.1018h-2.3844v-11.152c3.3086-2.1525 6.1092-5.1031 8.1646-8.5964.4263.428.9846.6812 1.7175.6812 1.0886 0 2.6193-1.8857 3.6878-3.65 1.0753-1.7756 2.2255-4.3481 2.2255-6.2452 0-3.6658-2.4403-4.733-3.8635-4.8068-.0246-14.5612-11.1856-26.4-24.901-26.4-13.7153 0-24.8752 11.8388-24.8998 26.4011-1.4232.0738-3.8635 1.141-3.8635 4.8068 0 1.8983 1.1491 4.4708 2.2254 6.2453 1.0697 1.7642 2.5992 3.6499 3.6879 3.6499.7329 0 1.2912-.2543 1.7175-.6811 2.0666 3.5137 4.8885 6.4779 8.2216 8.6338v7.9879c0 1.6201-1.299 2.9381-2.8968 2.9381h-2.6104c-2.9896 0-5.7063 1.0729-7.6487 3.0222-2.0733 2.0798-3.1687 5.0043-3.1687 8.4567v18.5393h56.7032l-4.4095-21.1765c-.348-1.6689-.9175-3.2004-1.6929-4.5525z" fill="url(#c)"/><path clip-rule="evenodd" d="m48.9997 40.6074c0-2.095-1.6939-3.7945-3.7868-3.8037 2.0929-.0091 3.7868-1.7086 3.7868-3.8037h.0003c0 2.097 1.6969 3.7977 3.7926 3.8037-2.0955.0062-3.7923 1.7068-3.7923 3.8037v.0001c-.0001 0-.0002 0-.0003 0h-.0003z" fill="#ffaf52" fill-rule="evenodd"/></g><g fill="#444936"><path d="m70.1178 40.9182c-2.4692 1.6558-4.9462 2.6239-7.9504 2.7361-3.0323.1133-5.9457-.2165-8.5898-1.7702-.0123-.0068.0516.9715.3567 1.2609 1.3339 1.2609 4.8205 2.2302 7.9369 2.0709 4.8284-.2468 7.7081-2.6733 8.1131-3.3767.1828-.3164.2524-1.0018.1335-.921z"/><path d="m35.0093 43.6541c-3.0031-.1121-5.4812-1.0803-7.9504-2.7361-.1189-.0796-.0493.6058.1324.9221.405.7034 3.2847 3.1299 8.113 3.3767 3.1165.1593 6.6031-.8099 7.9369-2.0708.2659-.2513.3388-1.0153.3545-1.2139.0012-.0202-.0201-.0336-.0381-.0235-2.6329 1.5324-5.5317 1.8577-8.5483 1.7455z"/></g></g></svg>

<svg width="98" height="87" viewBox="0 0 98 87" fill="none" xmlns="http://www.w3.org/2000/svg">
<mask id="mask0_24_2636" style="mask-type:alpha" maskUnits="userSpaceOnUse" x="0" y="0" width="98" height="87">
<path d="M0.5 20C0.5 9.23045 9.23045 0.5 20 0.5H78C88.7695 0.5 97.5 9.23045 97.5 20V79C97.5 83.1421 94.1421 86.5 90 86.5H8C3.85787 86.5 0.5 83.1421 0.5 79V20Z" fill="#FBF5EF" stroke="black"/>
</mask>
<g mask="url(#mask0_24_2636)">
<path d="M97 52C97 79.0811 75.4907 101 49 101C22.5093 101 1 79.0811 1 52C1 24.9189 22.5093 3 49 3C75.4907 3 97 24.9189 97 52Z" fill="url(#paint0_linear_24_2636)" stroke="url(#paint1_linear_24_2636)" stroke-width="2"/>
<mask id="mask1_24_2636" style="mask-type:alpha" maskUnits="userSpaceOnUse" x="-3" y="0" width="104" height="109">
<ellipse cx="49" cy="54.5" rx="52" ry="54.5" fill="#612C1B"/>
</mask>
<g mask="url(#mask1_24_2636)">
<path d="M70.6008 84.271C68.9739 81.4339 67.1199 80.1692 64.589 80.1692H62.2046V69.0172C65.5132 66.8647 68.3138 63.9141 70.3692 60.4208C70.7955 60.8488 71.3538 61.102 72.0867 61.102C73.1753 61.102 74.706 59.2163 75.7745 57.452C76.8498 55.6764 78 53.1039 78 51.2068C78 47.541 75.5597 46.4738 74.1365 46.4C74.1119 31.8388 62.9509 20 49.2355 20C35.5202 20 24.3603 31.8388 24.3357 46.4011C22.9125 46.4749 20.4722 47.5421 20.4722 51.2079C20.4722 53.1062 21.6213 55.6787 22.6976 57.4532C23.7673 59.2174 25.2968 61.1031 26.3855 61.1031C27.1184 61.1031 27.6767 60.8488 28.103 60.422C30.1696 63.9357 32.9915 66.8999 36.3246 69.0558V77.0437C36.3246 78.6638 35.0256 79.9818 33.4278 79.9818H30.8174C27.8278 79.9818 25.1111 81.0547 23.1687 83.004C21.0954 85.0838 20 88.0083 20 91.4607V110H76.7032L72.2937 88.8235C71.9457 87.1546 71.3762 85.6231 70.6008 84.271Z" fill="url(#paint2_linear_24_2636)"/>
<path fill-rule="evenodd" clip-rule="evenodd" d="M48.9997 40.6074C48.9997 38.5124 47.3058 36.8129 45.2129 36.8037C47.3058 36.7946 48.9997 35.0951 48.9997 33V33H49C49 35.097 50.6969 36.7977 52.7926 36.8037C50.6971 36.8099 49.0003 38.5105 49.0003 40.6074C49.0003 40.6075 49.0003 40.6075 49.0003 40.6075C49.0002 40.6075 49.0001 40.6075 49 40.6075H48.9997V40.6074Z" fill="#FFAF52"/>
</g>
<path d="M70.1178 40.9182C67.6486 42.574 65.1716 43.5421 62.1674 43.6543C59.1351 43.7676 56.2217 43.4378 53.5776 41.8841C53.5653 41.8773 53.6292 42.8556 53.9343 43.145C55.2682 44.4059 58.7548 45.3752 61.8712 45.2159C66.6996 44.9691 69.5793 42.5426 69.9843 41.8392C70.1671 41.5228 70.2367 40.8374 70.1178 40.9182Z" fill="#444936"/>
<path d="M35.0093 43.6541C32.0062 43.542 29.5281 42.5738 27.0589 40.918C26.94 40.8384 27.0096 41.5238 27.1913 41.8401C27.5963 42.5435 30.476 44.97 35.3043 45.2168C38.4208 45.3761 41.9074 44.4069 43.2412 43.146C43.5071 42.8947 43.58 42.1307 43.5957 41.9321C43.5969 41.9119 43.5756 41.8985 43.5576 41.9086C40.9247 43.441 38.0259 43.7663 35.0093 43.6541Z" fill="#444936"/>
</g>
<defs>
<linearGradient id="paint0_linear_24_2636" x1="47.775" y1="2" x2="47.775" y2="102" gradientUnits="userSpaceOnUse">
<stop stop-color="#FFD8AB"/>
<stop offset="1" stop-color="white" stop-opacity="0"/>
</linearGradient>
<linearGradient id="paint1_linear_24_2636" x1="47.775" y1="2" x2="47.775" y2="102" gradientUnits="userSpaceOnUse">
<stop stop-color="#FFCA8D"/>
<stop offset="1" stop-color="white" stop-opacity="0"/>
</linearGradient>
<linearGradient id="paint2_linear_24_2636" x1="49" y1="29.5" x2="49" y2="88.5" gradientUnits="userSpaceOnUse">
<stop stop-color="#FFFBF5"/>
<stop offset="1" stop-color="#FFC786"/>
</linearGradient>
</defs>
</svg>
